X:1
T:Title
%%score ( 1 2 3 ) { ( 4 6 ) | 5 }
L:1/8
Q:1/4=145
M:2/2
K:F
V:1 treble nm="Grand Piano, Unnamed-000"
V:2 treble 
V:3 treble 
V:4 bass nm="Choir Pad, Unnamed-001"
V:6 bass 
V:5 bass 
V:1
 z2 E2 F2 G2 | A4 [FA]2 [EG]2 | A4 A4 | A2 A2 B2 c2 | B4 A2 [EG]2 | [^CEA]8 | D2 E2 F2 G2 | %7
 [CFA]4 A2 G2 | A4 A4 | A2 A2 B2 c2 | B4 A2 [EG]2 | [CFA]8 | A2 A2 d2 A2 | G6 F2 | z2 F2 A2 F2 | %15
 E8 | A2 A2 d2 A2 | [B,DG]4 [G,CE]2 [A,CF]2 | [A,D]8- | [A,D]4 z4 |] %20
V:2
 [A,D]8- | [A,D]4 D4 | [CF]8 | F4 _E4 | [DF]8 | x8 | x8 | z4 [B,D]4 | [DF]8 | F4 _E4 | [DF]8 | x8 | %12
 D8 | x8 | D4 z4 | x8 | D8 | x8 | x8 | x8 |] %20
V:3
 x8 | x8 | x8 | x8 | x8 | x8 | x8 | x8 | x8 | x8 | x8 | x8 | x8 | [B,-D]8 | B,4 z4 | x8 | x8 | x8 | %18
 x8 | x8 |] %20
V:4
 F,8- | F,8 | z8 | z8 | z4 z2 E,2- | E,8 | F,8 | F,,4 G,,4 | D,8 | F,8 | F,6 E,2 | F,8 | D,8 | %13
 D,8 | A,6 B,2 | C8 | D,8- | D,4 z4 | [D,F,]8- | [D,F,]4 z4 |] %20
V:5
 D,8- | D,4 B,,4 | F,,8 | D,4 C,2 A,,2 | B,,8- | B,,4 z4 | B,,8 | z8 | D,,8 | D,4 C,2 A,,2 | B,,8 | %11
 F,,8 | ^F,,8 | G,,8 | [D,F,]8 | [C,G,]8 | F,,8 | G,,4 C,2 A,,2 | D,,8- | D,,4 z4 |] %20
V:6
 x8 | x8 | x8 | F,8- | F,8 | A,,8 | x8 | x8 | x8 | x8 | x8 | x8 | x8 | x8 | x8 | x8 | x8 | x8 | %18
 x8 | x8 |] %20

